Adwaita++-Dark/apps/16/filezilla.svg

<svg height="16" width="16" xmlns="http://www.w3.org/2000/svg">
  <path d="m1.5722656.5c-.56388 0-1.02183622.43040188-1.06640622.9824219.44095999.003.79687502.3610543.79687502.8027343 0 .44357-.3591644.8046876-.8027344.8046876v1.25c.44357 0 .8027344.3591643.8027344.8027343s-.3591644.8046875-.8027344.8046875v1.25c.44357 0 .8027344.3591644.8027344.8027344s-.3591644.8027344-.8027344.8027344v1.2499996c.44357 0 .8027344.361118.8027344.804688 0 .44358-.3591644.802734-.8027344.802734v1.25c.44357 0 .8027344.361108.8027344.804688 0 .44168-.35591503.799684-.79687502.802734.0446.55201.50252622.982422 1.06640622.982422 0-.44357.3591544-.802734.8027344-.802734.44356 0 .8027344.359164.8027344.802734h1.25c0-.44357.3611275-.802734.8046875-.802734.44357 0 .8027343.359164.8027343.802734h1.25c0-.44357.3611276-.802734.8046876-.802734.4435799 0 .8027343.359164.8027343.802734h1.2499999c0-.44357.361118-.802734.804688-.802734s.802734.359164.802734.802734h1.25c-.00001-.44357.359174-.802734.802734-.802734.4379 0 .795638.349416.804688.785156.4801-.0795.846939-.472114.886719-.964844-.44096-.003-.796875-.361054-.796875-.802734 0-.44358.359164-.804688.802734-.804688v-1.25c-.44357 0-.802734-.359154-.802734-.802734 0-.44357.359164-.804688.802734-.804688v-1.2499996c-.44357 0-.802734-.3591644-.802734-.8027344s.359164-.8027344.802734-.8027344v-1.25c-.44357 0-.802734-.3611175-.802734-.8046875s.359164-.8027343.802734-.8027343v-1.25c-.44357 0-.802734-.3611176-.802734-.8046876 0-.4416799.355915-.7996843.796875-.8027343-.0398-.49273002-.406619-.88536378-.886719-.96484378-.009.43574001-.366788.78515628-.804688.78515628-.44357 0-.802734-.3591644-.802734-.8027344h-1.25c0 .44357-.359164.8027344-.802734.8027344s-.804688-.3591644-.804688-.8027344h-1.2499999c0 .44357-.3591544.8027344-.8027343.8027344-.44356 0-.8046876-.3591644-.8046876-.8027344h-1.25c0 .44357-.3591643.8027344-.8027343.8027344-.44356 0-.8046875-.3591644-.8046875-.8027344h-1.25c0 .44357-.3591744.8027344-.8027344.8027344-.44358 0-.8027344-.3591644-.8027344-.8027344zm3.5410156 2.6894531h6.1113278l-.310547 1.4785157h-4.539062l-.4472656 1.7773437h6.9257816l-.359375 1.4804687-3.3046879 2.7734378c1.1547399.04049 1.6677729 1.060739 3.2890629-.082031l.294922 1.498046c-1.48558.84891-2.203164.623603-2.9648442.414063-.78292-.21544-1.2141538-.522084-2.2460938.003906l-.546875.279297-1.0644531-1.216797 4.0859371-3.626953h-4.3632809l-.9296875 3.871094h-1.5976562z" fill="#e6ddff"/>
</svg>

<svg xmlns="http://www.w3.org/2000/svg" width="16" height="16" version="1.1">
 <g transform="translate(-206.28572,-227.21933)">
  <path fill="#E6DDFF" d="M 1.5722656 0.5 C 1.0083856 0.5 0.55042938 0.93040188 0.50585938 1.4824219 C 0.94681937 1.4854219 1.3027344 1.8434762 1.3027344 2.2851562 C 1.3027344 2.7287262 0.94357 3.0898438 0.5 3.0898438 L 0.5 4.3398438 C 0.94357 4.3398438 1.3027344 4.6990081 1.3027344 5.1425781 C 1.3027344 5.5861481 0.94357 5.9472656 0.5 5.9472656 L 0.5 7.1972656 C 0.94357 7.1972656 1.3027344 7.55643 1.3027344 8 C 1.3027344 8.44357 0.94357 8.8027344 0.5 8.8027344 L 0.5 10.052734 C 0.94357 10.052734 1.3027344 10.413852 1.3027344 10.857422 C 1.3027344 11.301002 0.94357 11.660156 0.5 11.660156 L 0.5 12.910156 C 0.94357 12.910156 1.3027344 13.271264 1.3027344 13.714844 C 1.3027344 14.156524 0.94681937 14.514528 0.50585938 14.517578 C 0.55045938 15.069588 1.0083856 15.5 1.5722656 15.5 C 1.5722656 15.05643 1.93142 14.697266 2.375 14.697266 C 2.81856 14.697266 3.1777344 15.05643 3.1777344 15.5 L 4.4277344 15.5 C 4.4277344 15.05643 4.7888619 14.697266 5.2324219 14.697266 C 5.6759919 14.697266 6.0351562 15.05643 6.0351562 15.5 L 7.2851562 15.5 C 7.2851562 15.05643 7.6462838 14.697266 8.0898438 14.697266 C 8.5334237 14.697266 8.8925781 15.05643 8.8925781 15.5 L 10.142578 15.5 C 10.142578 15.05643 10.503696 14.697266 10.947266 14.697266 C 11.390836 14.697266 11.75 15.05643 11.75 15.5 L 13 15.5 C 12.99999 15.05643 13.359174 14.697266 13.802734 14.697266 C 14.240634 14.697266 14.598372 15.046682 14.607422 15.482422 C 15.087522 15.402922 15.454361 15.010308 15.494141 14.517578 C 15.053181 14.514578 14.697266 14.156524 14.697266 13.714844 C 14.697266 13.271264 15.05643 12.910156 15.5 12.910156 L 15.5 11.660156 C 15.05643 11.660156 14.697266 11.301002 14.697266 10.857422 C 14.697266 10.413852 15.05643 10.052734 15.5 10.052734 L 15.5 8.8027344 C 15.05643 8.8027344 14.697266 8.44357 14.697266 8 C 14.697266 7.55643 15.05643 7.1972656 15.5 7.1972656 L 15.5 5.9472656 C 15.05643 5.9472656 14.697266 5.5861481 14.697266 5.1425781 C 14.697266 4.6990081 15.05643 4.3398438 15.5 4.3398438 L 15.5 3.0898438 C 15.05643 3.0898438 14.697266 2.7287262 14.697266 2.2851562 C 14.697266 1.8434763 15.053181 1.4854719 15.494141 1.4824219 C 15.454341 0.98969188 15.087522 0.59705812 14.607422 0.51757812 C 14.598422 0.95331813 14.240634 1.3027344 13.802734 1.3027344 C 13.359164 1.3027344 13 0.94357 13 0.5 L 11.75 0.5 C 11.75 0.94357 11.390836 1.3027344 10.947266 1.3027344 C 10.503696 1.3027344 10.142578 0.94357 10.142578 0.5 L 8.8925781 0.5 C 8.8925781 0.94357 8.5334237 1.3027344 8.0898438 1.3027344 C 7.6462838 1.3027344 7.2851562 0.94357 7.2851562 0.5 L 6.0351562 0.5 C 6.0351562 0.94357 5.6759919 1.3027344 5.2324219 1.3027344 C 4.7888619 1.3027344 4.4277344 0.94357 4.4277344 0.5 L 3.1777344 0.5 C 3.1777344 0.94357 2.81856 1.3027344 2.375 1.3027344 C 1.93142 1.3027344 1.5722656 0.94357 1.5722656 0.5 z M 5.1132812 3.1894531 L 11.224609 3.1894531 L 10.914062 4.6679688 L 6.375 4.6679688 L 5.9277344 6.4453125 L 12.853516 6.4453125 L 12.494141 7.9257812 L 9.1894531 10.699219 C 10.344193 10.739709 10.857226 11.759958 12.478516 10.617188 L 12.773438 12.115234 C 11.287858 12.964144 10.570274 12.738837 9.8085938 12.529297 C 9.0256738 12.313857 8.59444 12.007213 7.5625 12.533203 L 7.015625 12.8125 L 5.9511719 11.595703 L 10.037109 7.96875 L 5.6738281 7.96875 L 4.7441406 11.839844 L 3.1464844 11.839844 L 5.1132812 3.1894531 z" transform="translate(206.28572,227.21933)"/>
 </g>
</svg>
